X:19
T:Hej édesanyám eresszen el a bálba
M:1/4
L:1/4
K:D
A d/B/ A<G | F<A G<E | F<D D2 |
e/d/c/d/ e<d | Bcd<e | c<A A2 |
e/d/c/d/ ed | B/B/e/d/ c/d/e/d/ | AF D2 |
A d/B/ A<G | F A/A/ G<E | F<D D2 |

